icons/fill-new-sound-broadcast-volume-up.svg

<svg xmlns="http://www.w3.org/2000/svg" width="32px" height="32px" viewBox="0 0 32 32" version="1.1">
    <title>fill-new-sound-broadcast-volume-up</title>
    <g id="fill-new-sound-broadcast-volume-up" stroke-width="1" fill-rule="evenodd">
        <path d="M19.5355339,12.4644661 C21.4881554,14.4170876 21.4881554,17.5829124 19.5355339,19.5355339 C19.1450096,19.9260582 18.5118446,19.9260582 18.1213203,19.5355339 C17.7307961,19.1450096 17.7307961,18.5118446 18.1213203,18.1213203 C19.2928932,16.9497475 19.2928932,15.0502525 18.1213203,13.8786797 C17.7307961,13.4881554 17.7307961,12.8549904 18.1213203,12.4644661 C18.5118446,12.0739418 19.1450096,12.0739418 19.5355339,12.4644661 Z M26.6066017,5.39339828 C32.4644661,11.2512627 32.4644661,20.7487373 26.6066017,26.6066017 C26.2160774,26.997126 25.5829124,26.997126 25.1923882,26.6066017 C24.8018639,26.2160774 24.8018639,25.5829124 25.1923882,25.1923882 C30.2692039,20.1155724 30.2692039,11.8844276 25.1923882,6.80761184 C24.8018639,6.41708755 24.8018639,5.78392257 25.1923882,5.39339828 C25.5829124,5.00287399 26.2160774,5.00287399 26.6066017,5.39339828 Z M23.0710678,8.92893219 C26.9763107,12.8341751 26.9763107,19.1658249 23.0710678,23.0710678 C22.6805435,23.4615921 22.0473785,23.4615921 21.6568542,23.0710678 C21.26633,22.6805435 21.26633,22.0473785 21.6568542,21.6568542 C24.7810486,18.5326599 24.7810486,13.4673401 21.6568542,10.3431458 C21.26633,9.95262146 21.26633,9.31945648 21.6568542,8.92893219 C22.0473785,8.5384079 22.6805435,8.5384079 23.0710678,8.92893219 Z M2,9 L8,9 L14.2928932,2.70710678 C14.6834175,2.31658249 15.3165825,2.31658249 15.7071068,2.70710678 C15.8946432,2.89464316 16,3.14899707 16,3.41421356 L16,28.5857864 C16,29.1380712 15.5522847,29.5857864 15,29.5857864 C14.7347835,29.5857864 14.4804296,29.4804296 14.2928932,29.2928932 L8,23 L2,23 C1.44771525,23 1,22.5522847 1,22 L1,10 C1,9.44771525 1.44771525,9 2,9 Z" id="&#24418;&#29366;" fill-rule="nonzero" />
    </g>
</svg>

<svg xmlns="http://www.w3.org/2000/svg" viewBox="0 0 32 32"><path fill="currentColor" d="M19.536 12.464a5 5 0 0 1 0 7.072 1 1 0 0 1-1.415-1.415 3 3 0 0 0 0-4.242 1 1 0 0 1 1.415-1.415m7.07-7.07c5.858 5.857 5.858 15.355 0 21.213a1 1 0 1 1-1.414-1.415c5.077-5.076 5.077-13.308 0-18.384a1 1 0 0 1 1.415-1.415m-3.535 3.535c3.905 3.905 3.905 10.237 0 14.142a1 1 0 0 1-1.414-1.414 8 8 0 0 0 0-11.314A1 1 0 0 1 23.07 8.93M2 9h6l6.293-6.293A1 1 0 0 1 16 3.414v25.172a1 1 0 0 1-1.707.707L8 23H2a1 1 0 0 1-1-1V10a1 1 0 0 1 1-1"/></svg>
